humanity-icon-theme/Humanity/actions/22/document-export.svg

<?xml version="1.0" encoding="UTF-8" standalone="no"?>
<!-- Created with Inkscape (http://www.inkscape.org/) -->

<svg
   xmlns:svg="http://www.w3.org/2000/svg"
   xmlns="http://www.w3.org/2000/svg"
   xmlns:xlink="http://www.w3.org/1999/xlink"
   version="1.0"
   width="22"
   height="22"
   id="svg2">
  <defs
     id="defs4">
    <linearGradient
       x1="20.483631"
       y1="12.820101"
       x2="20.483631"
       y2="-0.43754432"
       id="linearGradient3779"
       xlink:href="#linearGradient2187"
       gradientUnits="userSpaceOnUse"
       gradientTransform="matrix(0,-0.43117567,0.42425793,0,8.8858921,25.258498)" />
    <linearGradient
       id="linearGradient2187">
      <stop
         id="stop2189"
         style="stop-color:#ffffff;stop-opacity:0.64341086"
         offset="0" />
      <stop
         id="stop2191"
         style="stop-color:#ffffff;stop-opacity:0"
         offset="1" />
    </linearGradient>
    <linearGradient
       x1="23.996828"
       y1="15.5"
       x2="-0.073089309"
       y2="15.5"
       id="linearGradient3773"
       xlink:href="#linearGradient3698"
       gradientUnits="userSpaceOnUse"
       gradientTransform="matrix(0.36201765,0,0,0.36792061,8.2404862,6.3534524)" />
    <linearGradient
       id="linearGradient3698">
      <stop
         id="stop3700"
         style="stop-color:#ce7ecc;stop-opacity:1"
         offset="0" />
      <stop
         id="stop3702"
         style="stop-color:#c056bc;stop-opacity:0.81568629"
         offset="0.76278943" />
      <stop
         id="stop3704"
         style="stop-color:#f8c9f7;stop-opacity:0"
         offset="1" />
    </linearGradient>
    <linearGradient
       x1="36.5"
       y1="36"
       x2="-0.097514458"
       y2="36"
       id="linearGradient3775"
       xlink:href="#linearGradient3914"
       gradientUnits="userSpaceOnUse"
       gradientTransform="matrix(0.36201765,0,0,0.36792061,8.2404862,6.3534524)" />
    <linearGradient
       id="linearGradient3914">
      <stop
         id="stop3916"
         style="stop-color:#c02cbb;stop-opacity:1"
         offset="0" />
      <stop
         id="stop3918"
         style="stop-color:#b329ae;stop-opacity:0.49803922"
         offset="0.79722267" />
      <stop
         id="stop3920"
         style="stop-color:#982394;stop-opacity:0"
         offset="1" />
    </linearGradient>
    <linearGradient
       x1="32.892288"
       y1="8.0590115"
       x2="36.358372"
       y2="5.4565363"
       id="linearGradient4543"
       xlink:href="#linearGradient8589"
       gradientUnits="userSpaceOnUse"
       gradientTransform="matrix(0.541631,0,0,0.5202974,-0.9402078,0.6981438)" />
    <linearGradient
       id="linearGradient8589">
      <stop
         id="stop8591"
         style="stop-color:#fefefe;stop-opacity:1"
         offset="0" />
      <stop
         id="stop8593"
         style="stop-color:#cbcbcb;stop-opacity:1"
         offset="1" />
    </linearGradient>
    <linearGradient
       x1="17.288921"
       y1="2.184907"
       x2="15.179585"
       y2="5.8214641"
       id="linearGradient4565"
       xlink:href="#linearGradient4559"
       gradientUnits="userSpaceOnUse"
       gradientTransform="translate(0,1)" />
    <linearGradient
       id="linearGradient4559">
      <stop
         id="stop4561"
         style="stop-color:#cacaca;stop-opacity:1"
         offset="0" />
      <stop
         id="stop4563"
         style="stop-color:#949492;stop-opacity:1"
         offset="1" />
    </linearGradient>
    <linearGradient
       x1="25.132275"
       y1="6.7287393"
       x2="25.132275"
       y2="47.013336"
       id="linearGradient4545"
       xlink:href="#linearGradient3600"
       gradientUnits="userSpaceOnUse"
       gradientTransform="matrix(0.5428805,0,0,0.4889072,-1.0291327,-0.2337718)" />
    <linearGradient
       id="linearGradient3600">
      <stop
         id="stop3602"
         style="stop-color:#f4f4f4;stop-opacity:1"
         offset="0" />
      <stop
         id="stop3604"
         style="stop-color:#dbdbdb;stop-opacity:1"
         offset="1" />
    </linearGradient>
    <linearGradient
       x1="-51.786404"
       y1="50.786446"
       x2="-51.786404"
       y2="2.9062471"
       id="linearGradient4547"
       xlink:href="#linearGradient3931"
       gradientUnits="userSpaceOnUse"
       gradientTransform="matrix(0.4383743,0,0,0.4575444,31.223522,-0.7786496)" />
    <linearGradient
       id="linearGradient3931">
      <stop
         id="stop3933"
         style="stop-color:#8d8f8a;stop-opacity:1"
         offset="0" />
      <stop
         id="stop3935"
         style="stop-color:#cbcbcb;stop-opacity:1"
         offset="1" />
    </linearGradient>
  </defs>
  <g
     transform="translate(-1.9999995,-1)"
     id="layer1">
    <path
       d="m 3.4999995,1.5 c 4.3540581,0 7.7076925,0 12.0617525,0 0.7638,0.2373053 4.867172,2.9400631 5.938678,4.812 0,5.729357 0,10.459071 0,16.188431 -6.333619,0 -11.6668131,0 -18.0004305,0 0,-7.333622 0,-13.6668092 0,-21.000431 z"
       id="rect2594"
       style="fill:url(#linearGradient4545);fill-opacity:1;stroke:url(#linearGradient4547);stroke-width:0.99913895;stroke-linecap:butt;stroke-linejoin:round;stroke-miterlimit:4;stroke-opacity:1;stroke-dasharray:none;stroke-dashoffset:0;display:inline" />
    <path
       d="m 15.5,1.5 c 0,2.262965 0,5 0,5 0,0 4.653658,0 6,0 0,-0.836587 -4.820468,-4.9857176 -6,-5 z"
       id="path12038"
       style="fill:url(#linearGradient4543);fill-opacity:1;fill-rule:evenodd;stroke:url(#linearGradient4565);stroke-width:1;stroke-linecap:butt;stroke-linejoin:round;stroke-miterlimit:4;stroke-opacity:1;stroke-dasharray:none;display:inline" />
    <rect
       width="4"
       height="1"
       rx="0.25"
       ry="0.5"
       x="10"
       y="4"
       id="rect2870"
       style="fill:#babdb6;fill-opacity:1;stroke:none;display:inline" />
    <rect
       width="14"
       height="1"
       rx="0.25000003"
       ry="0.5"
       x="5"
       y="8"
       id="rect2874"
       style="opacity:0.8;fill:#babdb6;fill-opacity:1;stroke:none;display:inline" />
    <rect
       width="14"
       height="1"
       rx="0.25000003"
       ry="0.5"
       x="5"
       y="10"
       id="rect2892"
       style="opacity:0.8;fill:#babdb6;fill-opacity:1;stroke:none;display:inline" />
    <rect
       width="14"
       height="1"
       rx="0.25000003"
       ry="0.5"
       x="5"
       y="14"
       id="rect2894"
       style="opacity:0.8;fill:#babdb6;fill-opacity:1;stroke:none;display:inline" />
    <rect
       width="14"
       height="1"
       rx="0.25000003"
       ry="0.5"
       x="5"
       y="12"
       id="rect1984"
       style="opacity:0.8;fill:#babdb6;fill-opacity:1;stroke:none;display:inline" />
    <rect
       width="4"
       height="1"
       rx="0.25"
       ry="0.5"
       x="10"
       y="6"
       id="rect1988"
       style="fill:#babdb6;fill-opacity:1;stroke:none;display:inline" />
    <rect
       width="4.2666664"
       height="3.4000006"
       x="5"
       y="3.4857149"
       id="rect2887"
       style="opacity:0.8;fill:#babdb6;fill-opacity:1;stroke:none;display:inline" />
    <path
       d="m 4.8988764,3 0,4.6393762 9.7573736,0 L 14.65625,3 4.8988764,3 z"
       id="rect1990"
       style="opacity:0.3;fill:#cf8e72;fill-opacity:1;stroke:none;display:inline" />
    <path
       d="M 17.499624,7.4997324 23.499905,12.86917 17.499624,18.5 c 0,1e-6 0,-2.957806 0,-3.000648 l -9.9996237,0 0,-4.998971 9.9996237,0 0,-3.0006486 z"
       id="path1432"
       style="fill:url(#linearGradient3773);fill-opacity:1;fill-rule:nonzero;stroke:url(#linearGradient3775);stroke-width:0.99999988;stroke-linecap:round;stroke-linejoin:round;stroke-miterlimit:4;stroke-opacity:1;stroke-dasharray:none;stroke-dashoffset:0;marker:none;visibility:visible;display:block;overflow:visible" />
    <path
       d="m 18.53125,8.78125 0,1.21875 A 0.51754434,0.51754434 0 0 1 18,10.53125 l -8.5625,0 0.03125,2.9375 8.53125,0 A 0.51754434,0.51754434 0 0 1 18.53125,14 l 0,1.15625 L 22,11.875 18.53125,8.78125 z"
       transform="translate(0,0.99986606)"
       id="path3777"
       style="opacity:0.4;fill:none;stroke:url(#linearGradient3779);stroke-width:0.99999988;stroke-linecap:butt;stroke-linejoin:miter;stroke-miterlimit:4;stroke-opacity:1;stroke-dasharray:none;stroke-dashoffset:0;marker:none;visibility:visible;display:block;overflow:visible" />
  </g>
</svg>

<?xml version="1.0" encoding="UTF-8" standalone="no"?>
<!-- Created with Inkscape (http://www.inkscape.org/) -->
<svg id="svg2" xmlns="http://www.w3.org/2000/svg" height="22" width="22" version="1.0" xmlns:xlink="http://www.w3.org/1999/xlink">
 <defs id="defs4">
  <linearGradient id="linearGradient3779" y2="-.43754" gradientUnits="userSpaceOnUse" x2="20.484" gradientTransform="matrix(0 -.43118 .42426 0 8.8859 25.258)" y1="12.82" x1="20.484">
   <stop id="stop2189" style="stop-color:#fff;stop-opacity:.64341" offset="0"/>
   <stop id="stop2191" style="stop-color:#fff;stop-opacity:0" offset="1"/>
  </linearGradient>
  <linearGradient id="linearGradient3773" y2="15.5" gradientUnits="userSpaceOnUse" x2="-.073089" gradientTransform="matrix(.36202 0 0 .36792 8.2405 6.3535)" y1="15.5" x1="23.997">
   <stop id="stop3700" style="stop-color:#ce7ecc" offset="0"/>
   <stop id="stop3702" style="stop-color:#c056bc;stop-opacity:.81569" offset=".76279"/>
   <stop id="stop3704" style="stop-color:#f8c9f7;stop-opacity:0" offset="1"/>
  </linearGradient>
  <linearGradient id="linearGradient3775" y2="36" gradientUnits="userSpaceOnUse" x2="-.097514" gradientTransform="matrix(.36202 0 0 .36792 8.2405 6.3535)" y1="36" x1="36.5">
   <stop id="stop3916" style="stop-color:#c02cbb" offset="0"/>
   <stop id="stop3918" style="stop-color:#b329ae;stop-opacity:.49804" offset=".79722"/>
   <stop id="stop3920" style="stop-color:#982394;stop-opacity:0" offset="1"/>
  </linearGradient>
  <linearGradient id="linearGradient4543" y2="5.4565" gradientUnits="userSpaceOnUse" x2="36.358" gradientTransform="matrix(.54163 0 0 .52030 -.94021 .69814)" y1="8.059" x1="32.892">
   <stop id="stop8591" style="stop-color:#fefefe" offset="0"/>
   <stop id="stop8593" style="stop-color:#cbcbcb" offset="1"/>
  </linearGradient>
  <linearGradient id="linearGradient4565" y2="5.8215" gradientUnits="userSpaceOnUse" x2="15.18" gradientTransform="translate(0,1)" y1="2.1849" x1="17.289">
   <stop id="stop4561" style="stop-color:#cacaca" offset="0"/>
   <stop id="stop4563" style="stop-color:#949492" offset="1"/>
  </linearGradient>
  <linearGradient id="linearGradient4545" y2="47.013" gradientUnits="userSpaceOnUse" x2="25.132" gradientTransform="matrix(.54288 0 0 .48891 -1.0291 -.23377)" y1="6.7287" x1="25.132">
   <stop id="stop3602" style="stop-color:#f4f4f4" offset="0"/>
   <stop id="stop3604" style="stop-color:#dbdbdb" offset="1"/>
  </linearGradient>
  <linearGradient id="linearGradient4547" y2="2.9062" gradientUnits="userSpaceOnUse" x2="-51.786" gradientTransform="matrix(.43837 0 0 .45754 31.224 -.77865)" y1="50.786" x1="-51.786">
   <stop id="stop3933" style="stop-color:#8d8f8a" offset="0"/>
   <stop id="stop3935" style="stop-color:#cbcbcb" offset="1"/>
  </linearGradient>
 </defs>
 <g id="layer1" transform="translate(-2 -1)">
  <path id="rect2594" style="stroke-linejoin:round;stroke:url(#linearGradient4547);stroke-width:.99914;fill:url(#linearGradient4545)" d="m3.5 1.5h12.062c0.7638 0.23731 4.8672 2.9401 5.9387 4.812v16.188h-18v-21z"/>
  <path id="path12038" style="stroke-linejoin:round;fill-rule:evenodd;stroke:url(#linearGradient4565);fill:url(#linearGradient4543)" d="m15.5 1.5v5h6c0-0.83659-4.8205-4.9857-6-5z"/>
  <rect id="rect2870" style="fill:#babdb6" rx=".25" ry=".5" height="1" width="4" y="4" x="10"/>
  <rect id="rect2874" style="opacity:.8;fill:#babdb6" rx="0.25" ry=".5" height="1" width="14" y="8" x="5"/>
  <rect id="rect2892" style="opacity:.8;fill:#babdb6" rx="0.25" ry=".5" height="1" width="14" y="10" x="5"/>
  <rect id="rect2894" style="opacity:.8;fill:#babdb6" rx="0.25" ry=".5" height="1" width="14" y="14" x="5"/>
  <rect id="rect1984" style="opacity:.8;fill:#babdb6" rx="0.25" ry=".5" height="1" width="14" y="12" x="5"/>
  <rect id="rect1988" style="fill:#babdb6" rx=".25" ry=".5" height="1" width="4" y="6" x="10"/>
  <rect id="rect2887" style="opacity:.8;fill:#babdb6" height="3.4" width="4.2667" y="3.4857" x="5"/>
  <path id="rect1990" style="opacity:.3;fill:#cf8e72" d="m4.8989 3v4.6394h9.7574v-4.6394h-9.7571z"/>
  <path id="path1432" style="stroke-linejoin:round;stroke:url(#linearGradient3775);stroke-linecap:round;display:block;fill:url(#linearGradient3773)" d="m17.5 7.4997 6 5.3693-6 5.631v-3.0006h-9.9996v-4.999h9.9996v-3.0006z"/>
  <path id="path3777" style="opacity:.4;stroke:url(#linearGradient3779);display:block;fill:none" d="m18.531 8.7812v1.2188a0.51754 0.51754 0 0 1 -0.531 0.531h-8.5625l0.03125 2.9375h8.5312a0.51754 0.51754 0 0 1 0.531 0.532v1.1562l3.469-3.281-3.469-3.0938z" transform="translate(0 .99987)"/>
 </g>
</svg>
